X:29
T:Auf, du junger Wandersmann !
S:Volksweise aus Franken.
B:Frau Nachtigall (Straburg - 1928)
Z:<anamnese@laposte.net> -- http://anamnese.fr.st
N:p.86
M:C
L:1/4
Q:1/4=130
K:A
"A"A>E A"E"B | "A"ccc z | "E"B>c de | "E"dcBB |
"A"cecA | "E7"c/B/ B "A"A2 | "A"A>cee | 
"D"f"C#"ee"B"d | "E"B>c dd | "C#"e"B"dd"A"c |
"A"Accc | "E"B d/B/"A"c2 | "A"e>dcc/A/ | "D"B "E7"B/G/ "A"A2 |]
W:Auf, du junger Wandersmann ! Jetzo kommt die Zeit heran,
W:
